X: 351
T: Open the Door to three
R: slip-jig
M: 9/8
L: 1/8
Z: 2012 John Chambers <jc:trillian.mit.edu>
B: J. Anderson "Budget of Strathspeys, Reels and Country Dances" (Early 1800s) p.35 #1
F: http://imslp.org/wiki/Anderson%27s_Budget_of_Strathspeys,_Reels_and_Country_Dances_(Various)
N: The 2nd part has an open repeat but no final repeat symbol.  Fixed.
K: G
   D | G2B BGB AFD | G2B BGB c2d | efg dcB AFD | G2c BAB G2 :|
|: d | gdB gdB AFD | gfg def gdB | cac BgB AFD | G2c BAB G2 :|

%%sep 2 1 500
%%sep 1 1 500

